X:1
T: Girl I Left Behind Me, The (R-3)
I: Girl I Left Behind Me, The	R-3	G	reel
I: Brighton Camp	R-3	G	reel
M: C|
Z: Transcribed to abc by Mary Lou Knack
R: reel
K: G
gf| "G"e2d2 B2G2| "C"ABAG E2(3DEF| "G"G2G2 GABc|"D7"d4 B2gf|
    "G"e2d2 B2G2| "C"ABAG E2G2| "D"F2A2 D2EF| "G"G4 G2 :|
|:GA| "G"B2d2 e2f2| g2d2 B2A2| BGBd edef| g2ag "D"f2gf|
    "G"e2d2 B2G2| "C"ABAG E2G2| "D"F2A2 D2EF| "G"G4 G2 :|

